packages/crayons-core/src/components/icon/icon-assets/icons/freshconnect.svg

<?xml version="1.0" encoding="UTF-8"?>
<svg width="16px" height="16px" viewBox="0 0 16 16" version="1.1" xmlns="http://www.w3.org/2000/svg" xmlns:xlink="http://www.w3.org/1999/xlink">
    <!-- Generator: Sketch 52.6 (67491) - http://www.bohemiancoding.com/sketch -->
    <title>icon/freshconnect</title>
    <desc>Created with Sketch.</desc>
    <g id="Icons-✅" stroke="none" stroke-width="1" fill="none" fill-rule="evenodd">
        <g id="Icons" transform="translate(-80.000000, -1992.000000)" fill="currentColor">
            <g id="icon/freshconnect" transform="translate(80.000000, 1992.000000)">
                <g id="freshconnect">
                    <path d="M13.3,0 C14.7911688,9.13077564e-17 16,1.20883118 16,2.7 L16,8 C16,12.418278 12.418278,16 8,16 C3.581722,16 -5.41083001e-16,12.418278 0,8 C5.41083001e-16,3.581722 3.581722,-2.705415e-16 8,0 L13.3,0 Z M14.6,8 L14.6,2.7 C14.6,1.98202983 14.0179702,1.4 13.3,1.4 L8,1.4 C4.35492065,1.4 1.4,4.35492065 1.4,8 C1.4,11.6450793 4.35492065,14.6 8,14.6 C11.6450793,14.6 14.6,11.6450793 14.6,8 Z M10.88,8.27 L10.89,8.27 C11.5812489,8.26733738 12.1739854,8.76282737 12.2939296,9.44359575 C12.4138737,10.1243641 12.0261727,10.7925967 11.3756381,11.0263421 C10.7251034,11.2600874 10.0007642,10.9914249 9.66,10.39 L6.36,10.39 C6.01923583,10.9914249 5.29489656,11.2600874 4.64436194,11.0263421 C3.99382731,10.7925967 3.60612631,10.1243641 3.72607044,9.44359575 C3.84601456,8.76282737 4.43875106,8.26733738 5.13,8.27 L6.78,5.42 C6.65366265,5.20071454 6.58486108,4.95302887 6.58,4.7 C6.58,3.91575566 7.21575566,3.28 8,3.28 C8.78424434,3.28 9.42,3.91575566 9.42,4.7 C9.41513892,4.95302887 9.34633735,5.20071454 9.22,5.42 L10.88,8.27 Z M9.65,9 L9.66,9 L8,6.12 L6.34,9 L9.65,9 Z" id="Combined-Shape"></path>
                </g>
            </g>
        </g>
    </g>
</svg>

<svg viewBox="0 0 16 16"><path d="M13.3 0A2.7 2.7 0 0 1 16 2.7V8a8 8 0 1 1-8-8h5.3zm1.3 8V2.7a1.3 1.3 0 0 0-1.3-1.3H8A6.6 6.6 0 1 0 14.6 8zm-3.72.27h.01a1.42 1.42 0 1 1-1.23 2.12h-3.3a1.42 1.42 0 1 1-1.23-2.12l1.65-2.85a1.5 1.5 0 0 1-.2-.72 1.42 1.42 0 0 1 2.84 0 1.5 1.5 0 0 1-.2.72l1.66 2.85zM9.65 9h.01L8 6.12 6.34 9h3.31z" fill="currentColor" fill-rule="evenodd"/></svg>
